**kern	**silbe	**harmony	**phrase	**leadinstrument	**rhyme	**timestamp	**harte
*ICvox	*	*M4/4	*	*	*	*	*M4/4
*VRlead	*	*	*	*	*	*	*
*Hstimme	*	*	*	*	*	*	*
*D-:	*	*D-:	*	*	*	*	*D-:
*M4/4	*	*	*	*	*	*	*
*clefG2	*	*	*	*	*	*	*
r;	.	1r;	.	r	.	0	N.C.
=1	=1	=1	=1	=1	=1	=1	=1
*>Letter>A	*>Letter>A	*>Letter>A	*>Letter>A	*>Letter>A	*>Letter>A	*>Letter>A	*>Letter>A
*>Label>Intro	*>Label>Intro	*>Label>Intro	*>Label>Intro	*>Label>Intro	*>Label>Intro	*>Label>Intro	*>Label>Intro
1r	.	1C-M	newline	guitar	.	0.348	C-:maj
=2	=2	=2	=2	=2	=2	=2	=2
1r	.	1D-M	.	guitar	.	1.543	D-:maj
=3	=3	=3	=3	=3	=3	=3	=3
2r	.	1D-M	.	guitar	.	2.737	D-:maj
4f	On	.	.	.	.	.	.
8e	a	.	.	.	.	.	.
[8f	Mon-	.	.	.	.	.	.
=4	=4	=4	=4	=4	=4	=4	=4
*>Letter>B	*>Letter>B	*>Letter>B	*>Letter>B	*>Letter>B	*>Letter>B	*>Letter>B	*>Letter>B
*>Label>Verse	*>Label>Verse	*>Label>Verse	*>Label>Verse	*>Label>Verse	*>Label>Verse	*>Label>Verse	*>Label>Verse
8f]	_	1D-M	newline	voice	.	3.931	D-:maj
[8d-	-day	.	.	.	.	.	.
4d-]	_	.	.	.	.	.	.
2r	.	.	.	.	.	.	.
=5	=5	=5	=5	=5	=5	=5	=5
2f	I	1D-M	.	voice	.	5.114	D-:maj
4g-	was	.	.	.	.	.	.
8f	ar-	.	.	.	(a	.	.
[8a-	-res-	.	.	.	A	.	.
=6	=6	=6	=6	=6	=6	=6	=6
8a-]	_	1A-M	.	voice	.	6.297	A-:maj
[8e-	-ted	.	.	.	a)	.	.
4e-]	_	.	.	.	.	.	.
2r	.	.	.	.	.	.	.
=7	=7	=7	=7	=7	=7	=7	=7
2r	.	1A-M	.	voice	.	7.48	A-:maj
4g-	On	.	.	.	.	.	.
8f	a	.	.	.	.	.	.
[8g-	Tues-	.	.	.	.	.	.
=8	=8	=8	=8	=8	=8	=8	=8
8g-]	_	1A-M	newline	voice	.	8.663	A-:maj
[8e-	-day	.	.	.	.	.	.
4e-]	_	.	.	.	.	.	.
4r	.	.	.	.	.	.	.
4a-	They	.	.	.	.	.	.
=9	=9	=9	=9	=9	=9	=9	=9
4a-	locked	1A-M	.	voice	.	9.808	A-:maj
8r	.	.	.	.	.	.	.
[8a-	me	.	.	.	.	.	.
8a-]	_	.	.	.	.	.	.
8g-	in	.	.	.	.	.	.
8c	the	.	.	.	.	.	.
[8d-	jail	.	.	.	B	.	.
=10	=10	=10	=10	=10	=10	=10	=10
2d-]	_	1D-M	.	voice	.	10.954	D-:maj
2r	.	.	.	.	.	.	.
=11	=11	=11	=11	=11	=11	=11	=11
2r	.	1D-M	.	voice	.	12.099	D-:maj
4f	On	.	.	.	.	.	.
8e	a	.	.	.	.	.	.
[8f	Wednes-	.	.	.	.	.	.
=12	=12	=12	=12	=12	=12	=12	=12
8f]	_	1D-M	newline	voice	.	13.245	D-:maj
[8d-	-day	.	.	.	.	.	.
4d-]	_	.	.	.	.	.	.
4r	.	.	.	.	.	.	.
4f	My	.	.	.	.	.	.
=13	=13	=13	=13	=13	=13	=13	=13
2f	trial	1D-M	.	voice	.	14.408	D-:maj
4f	was	.	.	.	.	.	.
8g-	at-	.	.	.	(a	.	.
[8a-	-tes-	.	.	.	A	.	.
=14	=14	=14	=14	=14	=14	=14	=14
8a-]	_	1A-M	.	voice	.	15.572	A-:maj
8e-	-ted	.	.	.	a)	.	.
4r	.	.	.	.	.	.	.
2r	.	.	.	.	.	.	.
=15	=15	=15	=15	=15	=15	=15	=15
2r	.	1A-M	.	voice	.	16.736	A-:maj
4g-	On	.	.	.	.	.	.
8f	a	.	.	.	.	.	.
[8g-	Thurs-	.	.	.	.	.	.
=16	=16	=16	=16	=16	=16	=16	=16
4g-]	_	1A-M	newline	voice	.	17.899	A-:maj
8e-	-day	.	.	.	.	.	.
4e-	they	.	.	.	.	.	.
[8e-	said	.	.	.	.	.	.
4e-]	_	.	.	.	.	.	.
=17	=17	=17	=17	=17	=17	=17	=17
4g-	guil-	1A-M	.	voice	.	19.046	A-:maj
4e-	-ty	.	.	.	.	.	.
4e-	and	.	.	.	.	.	.
8e-	the	.	.	.	.	.	.
[8a-	jud-	.	.	.	.	.	.
=18	=18	=18	=18	=18	=18	=18	=18
4a-]	_	1A-M	.	voice	.	20.193	A-:maj
4a-	-ges's	.	.	.	.	.	.
8f	ga-	.	.	.	.	.	.
4c	-vel	.	.	.	.	.	.
[8d-	fell	.	.	.	B	.	.
=19	=19	=19	=19	=19	=19	=19	=19
4d-]	_	1D-M	.	voice	.	21.339	D-:maj
4r	.	.	.	.	.	.	.
8f	I	.	.	.	.	.	.
4.f	got	.	.	.	.	.	.
=20	=20	=20	=20	=20	=20	=20	=20
*>Letter>C	*>Letter>C	*>Letter>C	*>Letter>C	*>Letter>C	*>Letter>C	*>Letter>C	*>Letter>C
*>Label>Chorus	*>Label>Chorus	*>Label>Chorus	*>Label>Chorus	*>Label>Chorus	*>Label>Chorus	*>Label>Chorus	*>Label>Chorus
2d-	stripes	1D-M	newline	voice	.	22.486	D-:maj
2r	.	.	.	.	.	.	.
=21	=21	=21	=21	=21	=21	=21	=21
4f	Stripes	1D-M	.	voice	.	23.654	D-:maj
8f	a-	.	.	.	.	.	.
[8f	-round	.	.	.	.	.	.
4f]	_	.	.	.	.	.	.
4g-	my	.	.	.	.	.	.
=22	=22	=22	=22	=22	=22	=22	=22
2a-	shoul-	1A-M	.	voice	.	24.822	A-:maj
[2e-	-ders	.	.	.	.	.	.
=23	=23	=23	=23	=23	=23	=23	=23
4e-]	_	1A-M	.	voice	.	25.989	A-:maj
4r	.	.	.	.	.	.	.
8g-	I	.	.	.	.	.	.
4.g-	got	.	.	.	.	.	.
=24	=24	=24	=24	=24	=24	=24	=24
2e-	chains	1A-M	newline	voice	.	27.157	A-:maj
2r	.	.	.	.	.	.	.
=25	=25	=25	=25	=25	=25	=25	=25
4a-	Chains	1A-M	.	voice	.	28.303	A-:maj
8a-	a-	.	.	.	.	.	.
[8a-	-round	.	.	.	.	.	.
4a-]	_	.	.	.	.	.	.
4a-	my	.	.	.	.	.	.
=26	=26	=26	=26	=26	=26	=26	=26
[1a-	feet	1D-M	.	voice	.	29.448	D-:maj
=27	=27	=27	=27	=27	=27	=27	=27
4a-]	_	1D-M	.	voice	.	30.594	D-:maj
4r	.	.	.	.	.	.	.
8f	I	.	.	.	.	.	.
4.f	got	.	.	.	.	.	.
=28	=28	=28	=28	=28	=28	=28	=28
2d-	stripes	1D-M	newline	voice	.	31.74	D-:maj
2r	.	.	.	.	.	.	.
=29	=29	=29	=29	=29	=29	=29	=29
4f	Stripes	1D-M	.	voice	.	32.932	D-:maj
8f	a-	.	.	.	.	.	.
[8f	-round	.	.	.	.	.	.
4f]	_	.	.	.	.	.	.
4g-	my	.	.	.	.	.	.
=30	=30	=30	=30	=30	=30	=30	=30
2a-	shoul-	1A-M	.	voice	.	34.124	A-:maj
[2e-	-ders	.	.	.	.	.	.
=31	=31	=31	=31	=31	=31	=31	=31
4e-]	_	1A-M	.	voice	.	35.316	A-:maj
4r	.	.	.	.	.	.	.
8e-	And	.	.	.	.	.	.
4.f	them	.	.	.	.	.	.
=32	=32	=32	=32	=32	=32	=32	=32
2g-	chains	1A-M	newline	voice	.	36.508	A-:maj
2e-	them	.	.	.	.	.	.
=33	=33	=33	=33	=33	=33	=33	=33
2g-	chains	1A-M	.	voice	.	37.684	A-:maj
2e-	they're	.	.	.	.	.	.
=34	=34	=34	=34	=34	=34	=34	=34
4a-	'bout	1A-M	.	voice	.	38.86	A-:maj
8a-	to	.	.	.	.	.	.
[8a-	drag	.	.	.	.	.	.
4a-]	_	.	.	.	.	.	.
4c	me	.	.	.	.	.	.
=35	=35	=35	=35	=35	=35	=35	=35
4d-	down	1D-M	.	voice	.	40.037	D-:maj
4r	.	.	.	.	.	.	.
4.f	On	.	.	.	.	.	.
8e	a	.	.	.	.	.	.
=36	=36	=36	=36	=36	=36	=36	=36
*>Letter>B	*>Letter>B	*>Letter>B	*>Letter>B	*>Letter>B	*>Letter>B	*>Letter>B	*>Letter>B
*>Label>Verse	*>Label>Verse	*>Label>Verse	*>Label>Verse	*>Label>Verse	*>Label>Verse	*>Label>Verse	*>Label>Verse
8f	Mon-	1D-M	newline	voice	.	41.213	D-:maj
[8d-	-day	.	.	.	.	.	.
4d-]	_	.	.	.	.	.	.
2r	.	.	.	.	.	.	.
=37	=37	=37	=37	=37	=37	=37	=37
4f	Got	1D-M	.	voice	.	42.364	D-:maj
4f	my	.	.	.	.	.	.
4f	stri-	.	.	.	.	.	.
8f	-ped	.	.	.	.	.	.
[8a-	brit-	.	.	.	(C	.	.
=38	=38	=38	=38	=38	=38	=38	=38
8a-]	_	1A-M	.	voice	.	43.516	A-:maj
[8e-	-ches	.	.	.	c)	.	.
4e-]	_	.	.	.	.	.	.
2r	.	.	.	.	.	.	.
=39	=39	=39	=39	=39	=39	=39	=39
2r	.	1A-M	.	voice	.	44.667	A-:maj
4g-	On	.	.	.	.	.	.
8f	a	.	.	.	.	.	.
[8g-	Tues-	.	.	.	.	.	.
=40	=40	=40	=40	=40	=40	=40	=40
8g-]	_	1A-M	newline	voice	.	45.818	A-:maj
[8e-	-day	.	.	.	.	.	.
4e-]	_	.	.	.	.	.	.
2r	.	.	.	.	.	.	.
=41	=41	=41	=41	=41	=41	=41	=41
4a-	Got	1A-M	.	voice	.	46.974	A-:maj
8a-	my	.	.	.	.	.	.
[8a-	ball	.	.	.	.	.	.
4a-]	_	.	.	.	.	.	.
4c	and	.	.	.	.	.	.
=42	=42	=42	=42	=42	=42	=42	=42
2d-	chain	1D-M	.	voice	D	48.129	D-:maj
2r	.	.	.	.	.	.	.
=43	=43	=43	=43	=43	=43	=43	=43
2r	.	1D-M	.	voice	.	49.284	D-:maj
4f	On	.	.	.	.	.	.
8e	a	.	.	.	.	.	.
[8f	Wednes-	.	.	.	.	.	.
=44	=44	=44	=44	=44	=44	=44	=44
8f]	_	1D-M	newline	voice	.	50.44	D-:maj
[8d-	-day	.	.	.	.	.	.
4d-]	_	.	.	.	.	.	.
4r	.	.	.	.	.	.	.
4f	I'm	.	.	.	.	.	.
=45	=45	=45	=45	=45	=45	=45	=45
4f	work-	1D-M	.	voice	.	51.607	D-:maj
4f	-ing	.	.	.	.	.	.
8f	dig-	.	.	.	.	.	.
4g-	-gin'	.	.	.	.	.	.
[8a-	dit-	.	.	.	(C	.	.
=46	=46	=46	=46	=46	=46	=46	=46
8a-]	_	1A-M	.	voice	.	52.775	A-:maj
[8e-	-ches	.	.	.	c)	.	.
4e-]	_	.	.	.	.	.	.
2r	.	.	.	.	.	.	.
=47	=47	=47	=47	=47	=47	=47	=47
2r	.	1A-M	.	voice	.	53.943	A-:maj
4e-	On	.	.	.	.	.	.
8f	a	.	.	.	.	.	.
[8g-	Thurs-	.	.	.	.	.	.
=48	=48	=48	=48	=48	=48	=48	=48
4g-]	_	1A-M	newline	voice	.	55.111	A-:maj
8e-	-day	.	.	.	.	.	.
4e-	Lord	.	.	.	.	.	.
[8e-	I	.	.	.	.	.	.
4e-]	_	.	.	.	.	.	.
=49	=49	=49	=49	=49	=49	=49	=49
4g-	begged	1A-M	.	voice	.	56.25	A-:maj
4e-	them	.	.	.	.	.	.
4e-	not	.	.	.	.	.	.
8e-	to	.	.	.	.	.	.
[8a-	knock	.	.	.	.	.	.
=50	=50	=50	=50	=50	=50	=50	=50
4a-]	_	1A-M	.	voice	.	57.389	A-:maj
8a-	me	.	.	.	.	.	.
[8a-	down	.	.	.	.	.	.
4a-]	_	.	.	.	.	.	.
4c	a-	.	.	.	.	.	.
=51	=51	=51	=51	=51	=51	=51	=51
4d-	-gain	1D-M	.	voice	D	58.529	D-:maj
4r	.	.	.	.	.	.	.
8f	I	.	.	.	.	.	.
4.f	got	.	.	.	.	.	.
=52	=52	=52	=52	=52	=52	=52	=52
*>Letter>C	*>Letter>C	*>Letter>C	*>Letter>C	*>Letter>C	*>Letter>C	*>Letter>C	*>Letter>C
*>Label>Chorus	*>Label>Chorus	*>Label>Chorus	*>Label>Chorus	*>Label>Chorus	*>Label>Chorus	*>Label>Chorus	*>Label>Chorus
2d-	stripes	1D-M	newline	voice	.	59.668	D-:maj
2r	.	.	.	.	.	.	.
=53	=53	=53	=53	=53	=53	=53	=53
4f	Stripes	1D-M	.	voice	.	60.83	D-:maj
8f	a-	.	.	.	.	.	.
[8f	-round	.	.	.	.	.	.
4f]	_	.	.	.	.	.	.
4g-	my	.	.	.	.	.	.
=54	=54	=54	=54	=54	=54	=54	=54
2a-	shoul-	1A-M	.	voice	.	61.992	A-:maj
[2e-	-ders	.	.	.	.	.	.
=55	=55	=55	=55	=55	=55	=55	=55
4e-]	_	1A-M	.	voice	.	63.154	A-:maj
4r	.	.	.	.	.	.	.
8g-	I	.	.	.	.	.	.
4.g-	got	.	.	.	.	.	.
=56	=56	=56	=56	=56	=56	=56	=56
2e-	chains	1A-M	newline	voice	.	64.316	A-:maj
2r	.	.	.	.	.	.	.
=57	=57	=57	=57	=57	=57	=57	=57
4a-	Chains	1A-M	.	voice	.	65.448	A-:maj
8a-	a-	.	.	.	.	.	.
[8a-	-round	.	.	.	.	.	.
4a-]	_	.	.	.	.	.	.
4c	my	.	.	.	.	.	.
=58	=58	=58	=58	=58	=58	=58	=58
[1d-	feet	1D-M	.	voice	.	66.58	D-:maj
=59	=59	=59	=59	=59	=59	=59	=59
4d-]	_	1D-M	.	voice	.	67.713	D-:maj
4r	.	.	.	.	.	.	.
8f	I	.	.	.	.	.	.
4.f	got	.	.	.	.	.	.
=60	=60	=60	=60	=60	=60	=60	=60
2d-	stripes	1D-M	newline	voice	.	68.845	D-:maj
2r	.	.	.	.	.	.	.
=61	=61	=61	=61	=61	=61	=61	=61
4f	Stripes	1D-M	.	voice	.	70.021	D-:maj
8f	a-	.	.	.	.	.	.
[8f	-round	.	.	.	.	.	.
4f]	_	.	.	.	.	.	.
4g-	my	.	.	.	.	.	.
=62	=62	=62	=62	=62	=62	=62	=62
2a-	shoul-	1A-M	.	voice	.	71.197	A-:maj
[2e-	-ders	.	.	.	.	.	.
=63	=63	=63	=63	=63	=63	=63	=63
4e-]	_	1A-M	.	voice	.	72.373	A-:maj
4r	.	.	.	.	.	.	.
8e-	And	.	.	.	.	.	.
4.f	them	.	.	.	.	.	.
=64	=64	=64	=64	=64	=64	=64	=64
2g-	chains	1A-M	newline	voice	.	73.549	A-:maj
2e-	them	.	.	.	.	.	.
=65	=65	=65	=65	=65	=65	=65	=65
2g-	chains	1A-M	.	voice	.	74.699	A-:maj
2e-	they're	.	.	.	.	.	.
=66	=66	=66	=66	=66	=66	=66	=66
4a-	'bout	1A-M	.	voice	.	75.848	A-:maj
8a-	to	.	.	.	.	.	.
[8a-	drag	.	.	.	.	.	.
4a-]	_	.	.	.	.	.	.
4c	me	.	.	.	.	.	.
=67	=67	=67	=67	=67	=67	=67	=67
2d-	down	1D-M	.	voice	.	76.997	D-:maj
2r	.	.	.	.	.	.	.
=68	=68	=68	=68	=68	=68	=68	=68
*>Letter>D	*>Letter>D	*>Letter>D	*>Letter>D	*>Letter>D	*>Letter>D	*>Letter>D	*>Letter>D
*>Label>Modulation	*>Label>Modulation	*>Label>Modulation	*>Label>Modulation	*>Label>Modulation	*>Label>Modulation	*>Label>Modulation	*>Label>Modulation
*E-:	*	*E-:	*E-:	*E-:	*	*E-:	*E-:
1r	.	1E-M	newline	guitar	.	78.146	E-:maj
=69	=69	=69	=69	=69	=69	=69	=69
2r	.	1E-M	.	guitar	.	79.31	E-:maj
4g	On	.	.	.	.	.	.
8f#	a	.	.	.	.	.	.
[8g	Mon-	.	.	.	.	.	.
=70	=70	=70	=70	=70	=70	=70	=70
*>Letter>B	*>Letter>B	*>Letter>B	*>Letter>B	*>Letter>B	*>Letter>B	*>Letter>B	*>Letter>B
*>Label>Verse	*>Label>Verse	*>Label>Verse	*>Label>Verse	*>Label>Verse	*>Label>Verse	*>Label>Verse	*>Label>Verse
8g]	_	1E-M	newline	voice	.	80.475	E-:maj
[8e-	-day	.	.	.	.	.	.
4e-]	_	.	.	.	.	.	.
4r	.	.	.	.	.	.	.
4g	My	.	.	.	.	.	.
=71	=71	=71	=71	=71	=71	=71	=71
8g	ma-	1E-M	.	voice	.	81.632	E-:maj
4g	-ma	.	.	.	.	.	.
4.g	come	.	.	.	.	.	.
8a-	to	.	.	.	.	.	.
[8b-	see	.	.	.	.	.	.
=72	=72	=72	=72	=72	=72	=72	=72
8b-]	_	1B-M	.	voice	.	82.79	B-:maj
[8f	me	.	.	.	E	.	.
4f]	_	.	.	.	.	.	.
2r	.	.	.	.	.	.	.
=73	=73	=73	=73	=73	=73	=73	=73
2r	.	1B-M	.	voice	.	83.947	B-:maj
4a-	On	.	.	.	.	.	.
8g	a	.	.	.	.	.	.
[8a-	Tues-	.	.	.	.	.	.
=74	=74	=74	=74	=74	=74	=74	=74
2a-]	_	1B-M	newline	voice	.	85.105	B-:maj
4f	-day	.	.	.	.	.	.
4b-	they	.	.	.	.	.	.
=75	=75	=75	=75	=75	=75	=75	=75
4b-	caught	1B-M	.	voice	.	86.257	B-:maj
8r	.	.	.	.	.	.	.
[8b-	me	.	.	.	.	.	.
8b-]	_	.	.	.	.	.	.
8a-	with	.	.	.	.	.	.
8d	a	.	.	.	.	.	.
[8e-	file	.	.	.	F	.	.
=76	=76	=76	=76	=76	=76	=76	=76
2e-]	_	1E-M	.	voice	.	87.41	E-:maj
2r	.	.	.	.	.	.	.
=77	=77	=77	=77	=77	=77	=77	=77
2r	.	1E-M	.	voice	.	88.562	E-:maj
4g	On	.	.	.	.	.	.
8f#	a	.	.	.	.	.	.
[8g	Wednes-	.	.	.	.	.	.
=78	=78	=78	=78	=78	=78	=78	=78
8g]	_	1E-M	newline	voice	.	89.715	E-:maj
[8e-	-day	.	.	.	.	.	.
4e-]	_	.	.	.	.	.	.
4r	.	.	.	.	.	.	.
4g	I'm	.	.	.	.	.	.
=79	=79	=79	=79	=79	=79	=79	=79
4g	down	1E-M	.	voice	.	90.843	E-:maj
4g	in	.	.	.	.	.	.
4a-	sol-	.	.	.	.	.	.
8b-	-i-	.	.	.	.	.	.
[8b-	-ta-	.	.	.	.	.	.
=80	=80	=80	=80	=80	=80	=80	=80
8b-]	_	1B-M	.	voice	.	91.972	B-:maj
8f	-ry	.	.	.	E	.	.
4r	.	.	.	.	.	.	.
2r	.	.	.	.	.	.	.
=81	=81	=81	=81	=81	=81	=81	=81
2r	.	1B-M	.	voice	.	93.1	B-:maj
4f	On	.	.	.	.	.	.
8g	a	.	.	.	.	.	.
[8a-	Thurs-	.	.	.	.	.	.
=82	=82	=82	=82	=82	=82	=82	=82
4a-]	_	1B-M	newline	voice	.	94.229	B-:maj
8f	-day	.	.	.	.	.	.
4f	Lord	.	.	.	.	.	.
[8f	I	.	.	.	.	.	.
4f]	_	.	.	.	.	.	.
=83	=83	=83	=83	=83	=83	=83	=83
4a-	start	1B-M	.	voice	.	95.386	B-:maj
4f	on	.	.	.	.	.	.
4f	bread	.	.	.	.	.	.
4f	and	.	.	.	.	.	.
=84	=84	=84	=84	=84	=84	=84	=84
4b-	wa-	1B-M	.	voice	.	96.544	B-:maj
8b-	-ter	.	.	.	.	.	.
4.b-	for	.	.	.	.	.	.
4d	a	.	.	.	.	.	.
=85	=85	=85	=85	=85	=85	=85	=85
4e-	while	1E-M	.	voice	F	97.701	E-:maj
4r	.	.	.	.	.	.	.
8g	I	.	.	.	.	.	.
4.g	got	.	.	.	.	.	.
=86	=86	=86	=86	=86	=86	=86	=86
*>Letter>C	*>Letter>C	*>Letter>C	*>Letter>C	*>Letter>C	*>Letter>C	*>Letter>C	*>Letter>C
*>Label>Chorus	*>Label>Chorus	*>Label>Chorus	*>Label>Chorus	*>Label>Chorus	*>Label>Chorus	*>Label>Chorus	*>Label>Chorus
2e-	stripes	1E-M	newline	voice	.	98.858	E-:maj
2r	.	.	.	.	.	.	.
=87	=87	=87	=87	=87	=87	=87	=87
4g	Stripes	1E-M	.	voice	.	100.029	E-:maj
8g	a-	.	.	.	.	.	.
[8g	-round	.	.	.	.	.	.
4g]	_	.	.	.	.	.	.
4a-	my	.	.	.	.	.	.
=88	=88	=88	=88	=88	=88	=88	=88
2b-	shoul-	1B-M	.	voice	.	101.2	B-:maj
[2f	-ders	.	.	.	.	.	.
=89	=89	=89	=89	=89	=89	=89	=89
4f]	_	1B-M	.	voice	.	102.372	B-:maj
4r	.	.	.	.	.	.	.
8a-	I	.	.	.	.	.	.
4.a-	got	.	.	.	.	.	.
=90	=90	=90	=90	=90	=90	=90	=90
2f	chains	1B-M	newline	voice	.	103.543	B-:maj
2r	.	.	.	.	.	.	.
=91	=91	=91	=91	=91	=91	=91	=91
4b-	Chains	1B-M	.	voice	.	104.671	B-:maj
8b-	a-	.	.	.	.	.	.
[8b-	-round	.	.	.	.	.	.
4b-]	_	.	.	.	.	.	.
4b-	my	.	.	.	.	.	.
=92	=92	=92	=92	=92	=92	=92	=92
1b-	feet	1E-M	.	voice	.	105.798	E-:maj
=93	=93	=93	=93	=93	=93	=93	=93
4g	_	1E-M	.	voice	.	106.926	E-:maj
4r	.	.	.	.	.	.	.
8g	I	.	.	.	.	.	.
4.g	got	.	.	.	.	.	.
=94	=94	=94	=94	=94	=94	=94	=94
2e-	stripes	1E-M	newline	voice	.	108.054	E-:maj
2r	.	.	.	.	.	.	.
=95	=95	=95	=95	=95	=95	=95	=95
4g	Stripes	1E-M	.	voice	.	109.237	E-:maj
8g	a-	.	.	.	.	.	.
[8g	-round	.	.	.	.	.	.
4g]	_	.	.	.	.	.	.
4a-	my	.	.	.	.	.	.
=96	=96	=96	=96	=96	=96	=96	=96
2b-	shoul-	1B-M	.	voice	.	110.42	B-:maj
[2f	-ders	.	.	.	.	.	.
=97	=97	=97	=97	=97	=97	=97	=97
4f]	_	1B-M	.	voice	.	111.603	B-:maj
4r	.	.	.	.	.	.	.
8f	And	.	.	.	.	.	.
4.g	them	.	.	.	.	.	.
=98	=98	=98	=98	=98	=98	=98	=98
2a-	chains	1B-M	newline	voice	.	112.786	B-:maj
2f	them	.	.	.	.	.	.
=99	=99	=99	=99	=99	=99	=99	=99
2a-	chains	1B-M	.	voice	.	113.964	B-:maj
2f	they're	.	.	.	.	.	.
=100	=100	=100	=100	=100	=100	=100	=100
4b-	'bout	1B-M	.	voice	.	115.143	B-:maj
8b-	to	.	.	.	.	.	.
[8b-	drag	.	.	.	.	.	.
4b-]	_	.	.	.	.	.	.
4d	me	.	.	.	.	.	.
=101	=101	=101	=101	=101	=101	=101	=101
1e-	down	1E-M	.	voice	.	116.322	E-:maj
r;	.	1r;	.	r	.	122.069	N.C.
r;	.	1r;	.	r	.	125.309	N.C.
*-	*-	*-	*-	*-	*-	*-	*-
!!!BillboardChartDate: 1959/08/24
!!!BillboardPeak: 43
!!!BillboardWeeksOnChart: 11
!!!COC: Johnny Cash
!!!ENC: Nathaniel Condit-Schultz
!!!EST: Awating manual error checking and editing.
!!!OTL: I Got Stripes
!!!RDF**chordsym: original McGill chord annotation + (implied pitch class set, with bass pitch in first position)
!!!RDF**harmony: **recip + pitch class of root + harmonic quality
!!!RDF**leadinstrument: original McGill primary instrumentation annotation
!!!RDF**phrase: newline = linebreak in original McGill transcription
!!!RDF**timestamp: McGill audio timestamp in seconds
!!!RDT: 2017/01/12/
!!!SampleActualRank: 55
!!!SampleID#: 1160
!!!SampleTargetRank: 54
